X: 43
T: the Merry Hunters
%%VWML:Thompsons1774-3047-p22-0
F:http://www.vwml.org/record/Thompsons1774/3047/p22
M: 2/4
L: 1/8
Z: 2011 John Chambers <jc:trillian.mit.edu>
B: Charles & Samuel Thompson eds "Twenty Four Country Dances", London 1774, p.22 #1 
K: F
%-------------------------
|: F>FF>F | TG3d | c>BA>G | (A>c)f2 |\
F>FF>A | G3f | (e>dc>=B) | c4 :|
|: c>cc>c | b3a | g>(fe>d) | c>BA>G |\
A>Fc>A | f2ed | c>BA>G | F4 :|
% - - - - - - - - Dance description - - - - - - - -
%%begintext align
%% The first Cu: lead thro the 3d Cu: cast off lead up thro 
%% the 2d Cu: .|. :|. foot it and back to back right Hands 
%% and left .|: :|:
%%endtext
T: the Queen's Night-Cap R: hornpipe, reel
M: 2/4
L: 1/8
Z: 2011 John Chambers <jc:trillian.mit.edu>
B: Charles & Samuel Thompson eds "Twenty Four Country Dances", London 1774, p.22 #2 
K: F
%-------------------------
|: f>ff>f | Tf3d | cAGF | G2AB |\
cfff | f2ed | eg =Bd | c4 :|
|: gggg | Tg2a2 | gfed | cBAG |\
AFcA | f2ed | cBAG | F4 :|
% - - - - - - - - Dance description - - - - - - - - 
%%begintext align
%% Hands all four a cross .|. and back again :|. Cross 
%% over one Cu: lead thro the 3d Cu: .|: right Hands 
%% and left :|:
%%endtext
